X: 305803
M: 6/8
L: 1/8
K: C
(3(G,/A,/B,/) |\
cee egg | c3 cde | f2d e2c | dBG AAB |\
cee egg | c3 cde |[1 a2^f def | g3 g2 :|[2 fed cBA | GAG FE"^D.C."D |]
e2d e2d | e2d c2G | e2d e2d | gag fed |\
e2d e2d | e2d c2G | AGF EFG | c2 [Gc] FE"^D.C."D |]


